Catalina-light/actions/22/podcast-amarok.svg

<svg xmlns="http://www.w3.org/2000/svg" viewBox="0 0 22 22">
  <defs id="defs3051">
    <style type="text/css" id="current-color-scheme">
      .ColorScheme-Text {
        color:#4d4d4d
      }
      </style>
  </defs>
 <path 
     style="fill:currentColor;fill-opacity:1;stroke:none"      
	 class="ColorScheme-Text"
        d="M 11 3 C 10.153808 3 9.4287742 3.3018126 8.8261719 3.9042969 C 8.2235696 4.5067812 7.9238281 5.2299794 7.9238281 6.0761719 L 7.9238281 11 C 7.9238281 11.846192 8.2236876 12.571462 8.8261719 13.173828 C 9.4286562 13.776194 10.153808 14.076172 11 14.076172 C 11.846192 14.076172 12.571344 13.776194 13.173828 13.173828 C 13.776312 12.571462 14.076172 11.846192 14.076172 11 L 14.076172 6.0761719 C 14.076172 5.2299794 13.776548 4.5068992 13.173828 3.9042969 C 12.571344 3.3018126 11.846192 3 11 3 z M 6.0761719 9.1542969 C 5.9094118 9.1542969 5.7663263 9.2141424 5.6445312 9.3359375 C 5.5227362 9.4577326 5.4609375 9.6028892 5.4609375 9.7695312 L 5.4609375 11 C 5.4609375 12.416694 5.9334603 13.649262 6.8789062 14.697266 C 7.8243522 15.74527 8.9936819 16.346222 10.384766 16.5 L 10.384766 17.769531 L 7.9238281 17.769531 C 7.757186 17.769531 7.6120294 17.829377 7.4902344 17.951172 C 7.3684393 18.072967 7.3066406 18.218124 7.3066406 18.384766 C 7.3066406 18.55129 7.3684393 18.694729 7.4902344 18.816406 C 7.6120294 18.938201 7.757186 19 7.9238281 19 L 14.076172 19 C 14.242814 19 14.388207 18.938201 14.509766 18.816406 C 14.631679 18.694729 14.691406 18.55129 14.691406 18.384766 C 14.691406 18.218124 14.631679 18.072967 14.509766 17.951172 C 14.388207 17.829377 14.242814 17.769531 14.076172 17.769531 L 11.615234 17.769531 L 11.615234 16.5 C 13.006082 16.346222 14.173577 15.74527 15.119141 14.697266 C 16.064705 13.649262 16.539063 12.416694 16.539062 11 L 16.539062 9.7695312 C 16.539062 9.6028892 16.477382 9.4578506 16.355469 9.3359375 C 16.23391 9.2141424 16.09047 9.1542969 15.923828 9.1542969 C 15.757186 9.1542969 15.612029 9.2141424 15.490234 9.3359375 C 15.368439 9.4577326 15.306641 9.6028892 15.306641 9.7695312 L 15.306641 11 C 15.306641 12.185968 14.885857 13.199963 14.042969 14.042969 C 13.200199 14.885975 12.185968 15.308594 11 15.308594 C 9.8140324 15.308594 8.8000372 14.885975 7.9570312 14.042969 C 7.1141433 13.200199 6.6914063 12.185968 6.6914062 11 L 6.6914062 9.7695312 C 6.6914062 9.6028892 6.6315607 9.4577326 6.5097656 9.3359375 C 6.3879706 9.2141424 6.242932 9.1542969 6.0761719 9.1542969 z "
     />
</svg>

<svg viewBox="0 0 22 22" xmlns="http://www.w3.org/2000/svg">
<defs>
<style id="current-color-scheme" type="text/css">.ColorScheme-Text {
        color:#363636
      }</style>
</defs>
<path class="ColorScheme-Text" d="m11 3c-0.84619 0-1.5712 0.30181-2.1738 0.9043s-0.90234 1.3257-0.90234 2.1719v4.9238c0 0.84619 0.29986 1.5715 0.90234 2.1738s1.3276 0.90234 2.1738 0.90234 1.5713-0.29998 2.1738-0.90234 0.90234-1.3276 0.90234-2.1738v-4.9238c0-0.84619-0.29962-1.5693-0.90234-2.1719-0.60248-0.60248-1.3276-0.9043-2.1738-0.9043zm-4.9238 6.1543c-0.16676 0-0.30985 0.059846-0.43164 0.18164-0.1218 0.1218-0.18359 0.26695-0.18359 0.43359v1.2305c0 1.4167 0.47252 2.6493 1.418 3.6973 0.94545 1.048 2.1148 1.649 3.5059 1.8027v1.2695h-2.4609c-0.16664 0-0.3118 0.059846-0.43359 0.18164-0.1218 0.1218-0.18359 0.26695-0.18359 0.43359 0 0.16652 0.061799 0.30996 0.18359 0.43164 0.1218 0.1218 0.26695 0.18359 0.43359 0.18359h6.1523c0.16664 0 0.31204-0.061799 0.43359-0.18359 0.12191-0.12168 0.18164-0.26512 0.18164-0.43164 0-0.16664-0.059727-0.3118-0.18164-0.43359-0.12156-0.1218-0.26695-0.18164-0.43359-0.18164h-2.4609v-1.2695c1.3908-0.15378 2.5583-0.75473 3.5039-1.8027s1.4199-2.2806 1.4199-3.6973v-1.2305c0-0.16664-0.06168-0.31168-0.18359-0.43359-0.12156-0.1218-0.265-0.18164-0.43164-0.18164s-0.3118 0.059846-0.43359 0.18164-0.18359 0.26695-0.18359 0.43359v1.2305c0 1.186-0.42078 2.2-1.2637 3.043-0.84277 0.84301-1.857 1.2656-3.043 1.2656-1.186 0-2.2-0.42262-3.043-1.2656-0.84289-0.84277-1.2656-1.857-1.2656-3.043v-1.2305c0-0.16664-0.059846-0.3118-0.18164-0.43359-0.1218-0.1218-0.26683-0.18164-0.43359-0.18164z" fill="#363636"/>
</svg>
